X:1
T:I tene a l'ombra
T:I tene a l'ombra
T:Girolamo Scotto
T:Source : Secondo Libro delle Muse a tre voci---Venetia---G.Scotto---1562. Editor : André Vierendeels (01/05/16).
T:Notes : Original clefs : C2, C3, C4 Editorial accidentals above the staff "Primi toni"
T:©
T:©
T:©
T:©
T:©
T:©
T:©
C:Girolamo Scotto
Z:©
%%score [ 1 [ 2 3 ] ]
L:1/8
Q:1/4=100
M:4/4
K:F
V:1 treble nm="Alto" snm="A"
V:2 treble-8 nm="Tenor 1" snm="T 1"
V:3 treble-8 nm="Tenor 2" snm="T 2"
V:1
 z8 | z8 | z8 | z4 D4 | D2 E2 F2 G2 | A4 A4- | A2 G2 F2 A2 | B4 A2 G2 | F2 D2 FEDC | %9
w: |||I|te- ne'a l'om- bra|de gli|_ a- me- ni|fagg' a- me-|ni fag- * * * *|
 B,2 C2 D2 F2- | F2 _E2 D2 G2- | G2 D3 E FG | A2 G4 F2 | G3 A B2 A2- | AG F2 E4 | D2 B2 B2 B2 | %16
w: * gi, pa- sciu-|* * te pe-|* co- * * *|rel- le ho-|mai, _ _ ch'el|_ _ _ So-|le, sul mez- zo|
 AGFE F4- | F2 F2 E2 E2 | F2 D4 G2 | A3 G FE D2- | DB, C2 D2 F2- | F2 D2 A2 A2 | B2 A3 G/F/ G2 | %23
w: gior- * * * no|_ in- driz za'i|cal- di rag-||* * * gi, i|_ cal- di, i|cal- di rag- * *|
 A4 z2 G2 | G2 G2 F2 G2 | A3 G F2 E2 | D3 E F3 G | A8 | z2 F2 F2 E2 | D2 C2 D2 C2- | %30
w: gi. I-|vi'u- di- re- te|l'al- te mie pa-|ro- * * *|le,|lo- dar gl'oc-|chi se- re- ni'e|
 CD _E2 D2 G2- | G2 FE D4 | z2 A2 A2 A2 | B2 B2 A4- | A2 GF A2 A2- | A2 G2 F2 E2- | EF G2 C2 F2- | %37
w: _ _ rec- cie bion-|* * * de,|le ma- ni|et le bel-|* lez _ ze al|_ mon- do so-|* * * le, al|
 F2 D4 G2- | GF F4 E2 | F4 E4 | A2 G2 A4 | A8- | A8 | z2 A2 F2 E2 | F2 D2 F4 | E4 F4 | F2 F2 D3 E | %47
w: _ mon- do|_ _ So- *|le, men-|tr'el mio can-|to|_|e'l mor- mo-|rar de l'on-|de, s'ac-|cor- de- ran- *|
 F2 C2 C2 C2 | D2 F3 E FG |"^#" A2 G4 F2 | G4 z4 | z8 | z2 A2 A2 G2 | F2 D2 A3 G | F2 E2 F2 G2 | %55
w: no et voi di|pas- s'in _ _ _|_ _ pas-|so,||i- te pa-|scen- d'o fio- *|ri, i- te pa-|
 A2 B2 A2 G2 | A2 F2 E4 | D2 B4 A2 | G2 A4 F2 | B2 A4 G2 | A2 G4 F2 | G2 D2 D2 D2 | D8 | D8 |] %64
w: scen- do fio- ri'her-|bett' e fron-|de, i te|pa- scen- do|fio- ri'her bet-|t'e fron- *|de, her- bett' e|fron-|de.|
V:2
 G4 G2 A2 | B2 c2 d2 B2 | A2 c4 B2 | c2 f2 f4- | f2 c2 d2 e2 | f4 f2 f2- | f2 e2 d2 ^c2 | %7
w: I te- ne'a|l'om- bra de gl'a-|me- ni fag-|* gi, I|_ te- ne'a l'om-|bra de gli|_ a- me- ni|
 d3 e f2 c2- | c2 B2 A4 | G3 A B2 A2- | AB c4 B2 | G2 B2 A3 B | c2 B2 A4 | GABc de f2- | %14
w: fag- * gi, pa-|* sciu- te|pe- * * co-|* * rel- *|le ho- mai _|_ ch'el So-||
"^#" fe d4 c2 | B2 d2 _e2 d2- | d2 c2 B2 A2 | B3 A G2 A2 | F2 f4 e2 | f3 e dc B2- | B2 AG A4- | %21
w: |le, sul mez- zo|_ gior- no in-|driz _ _ za'i|cal- di rag-|||
 A2 =B2 c4 | d3 c B4 | A2 c2 c2 c2 | B2 c2 d2 e2 | f3 e d2 c2- | c2 B2 c2 d2 | c2 f2 f2 e2 | %28
w: * * gi,|[cal- di rag-|gi.] I vi'u- di-|re- te l'al- te|mie _ _ pa-|* * ro- *|le, lo- dar gl'oc-|
 d2 d2 c4 | B2 A2 B2 G2 | A2 c4 B2 | c4 z2 f2 | f2 e2 f2 f2 | z2 d2 d2 d2 | c2 c2 c4 | d4 z2 c2 | %36
w: chi se- re-|ni, et trec- cie|bion- * *|de, et|trec- cie bion- de,|le ma- ni'et|le bel- lez-|ze al|
 c2 B2 A4- | A2 B4 AG | A4 G4 | A4 c4 | A2 c2 c2 f2- | f2 f2 e2 e2 | f2 e2 f4 | e2 d2 d2 c2 | %44
w: mon- do So-|||le, men-|tr'el mi- o can-|* to e'l mor-|mo- rar de|l'on- de, e'l mor-|
 A2 B2 A3 B | c4 A4 | A2 A2 B4 | A2 A2 A2 A2 | B2 A2 d4 | c2 B2 A4 | G2 d2 d2 c2 | %51
w: mo- rar de l'on-|de, s'ac-|cor- de- ran-|no et voi di|pas- s'in pas-||so, i- te pa-|
"^-natural" B2 d3 B c2 | d4 c4- | c2 B2 A2 c2 | d2 c2 B4 | A2 d2 f2 e2 | f2 d4 c2 | d6 A2 | %58
w: scen- * * *|d'o fio|_ ri her- bett'|_ e frond'|her- bett' e fron-|* de, her-|bett' e|
 c4 d4- | d2 c2 d3 c | A2 B2 A4 | G2 B2 B2 B2 | B8 | A8 |] %64
w: fron- de,|_ her- bett' e|fron- * *|de, her- bett' e|fron-|de.|
V:3
 z8 | z4 D4 | D2 E2 F2 G2 | A4 B2 B2- | B2 A2 F2 E2 | D2 d2 d4- | d2 G2 B2 A2 | G2 D4 E2 | %8
w: |I|te- ne'a l'om- bra|de gl'a- me-|* ni fag- gi,|I te- ne'a|_ l'om- bra de|gl'a- meni fag-|
 F2 G2 D4 | _E4 D4 | C4 G3 F |"^b" E2 G2 F4- | F2 G2 D4 | _E4 D4- | D4 A4 | z2 G2 G2 G2 | %16
w: * * gi,|pa- sciu-|te pe- co-|rel- le ho-|* ma- i|ch'el So-|* le,|sul mez- zo|
 A2 A2 D2 D2 | d6 c2 | A2 B2 G4 | F2 D2 F2 G2 | _E4 D4- | D2 G2 F3 E | D4 G4 | F4 C4 | z8 | %25
w: gior- no in- driz-|za i|cal- di rag-|gi, i cal- di|rag- gi,|_ i cal- di|rag- *|* gi.||
 D4 D2 E2 | F2 G2 A2 B2 | A2 d4 c2- | c2 B2 A4 | z2 F2 F2 E2 | F2 C2 G4 | C2 c4 B2 | A3 G FE D2 | %33
w: I- vi'u- di-|re- te l'al- te|mie pa- ro-|* * le,|lo- dar gl'oc-|chi se- re-|ni et trec-|cie _ _ _ _|
 G4 D3 E | F2 A2 A2 A2 | B2 B2 A4 | G4 F3 E | D2 G4 FE | F4 C4 | F4 A4 | F2 E2 F4 | D2 d2 A2 A2 | %42
w: bion- de _|_ le ma- n'et|le bel- lez-|z'al mon- *|* do _ _|_ So-|le, men-|tr'el mio can-|to e'l mor- mo-|
 d2 c2 d4 | A2 D2 D2 A2 | F2 G2 DEFG | A4 D4 | D2 D2 G4 | D2 F2 F2 F2 | D4 D3 E | F2 G2 D4 | %50
w: rar de l'on-|de, e'l mor- mo-|rar de l'on- * * *|de, s'ac-|cor- de- ran-|no et voi di|pas- s'in _|_ pas- so,|
 z2 G2 B2 A2 | G2 F2 E4 | D3 E F2 E2 | F2 G2 F3 E | D2 A2 A2 G2 | F2 D2 D2 G2 |"^#" D4 A4 | %57
w: i- te pa-|scen- d'o fio-|ri _ _ her-|bett' e fron _|de, i- te pa-|scen- d'o fio- ri|her- bett'|
 B3 A G2 F2 | E2 F2 D2 B2 | G2 A2 B4 | F2 G2 D4 | z2 G2 G2 G2 | G8 | D8 |] %64
w: e _ _ fron-|de, her- bett' e|fron- * de,|e fron- de,|her- bett' e|fron-|de.|

